X: 526
%
T: Nuair bha mi fein 'nam Mhaidun
T: When I was a Maiden
C:Pipe tune
O:Scotland
B:Keith Norman MacDonald : "The Skye collection of the best reels & strathspeys extant" : 1887
Z:Ralph Palmer
R:Reel
M:C
L:1/8
K:A Mix
f | eAcA eA c2 | (fB) Bc fBBa | eAcA eA ca | cAAB cAA ::
a | fefa fedc | fBBc fBBa | [1 fefa feca | cAAB cAA :| [2 fefa eaca cAAB [Ac]AA |]


